public/media/icons-technologies/BITBUCKET.svg

<svg width="140" height="140" viewBox="0 0 140 140" fill="none" xmlns="http://www.w3.org/2000/svg">
<path d="M14.3147 16.719C13.7577 16.7118 13.206 16.8266 12.6981 17.0554C12.1902 17.2842 11.7386 17.6214 11.375 18.0433C11.0113 18.4652 10.7444 18.9616 10.5931 19.4977C10.4417 20.0337 10.4095 20.5964 10.4988 21.1462L26.6979 119.485C26.8997 120.688 27.5191 121.782 28.4473 122.574C29.3754 123.366 30.553 123.806 31.7732 123.816H109.486C110.401 123.828 111.289 123.511 111.99 122.922C112.69 122.334 113.156 121.514 113.302 120.611L129.501 21.1653C129.591 20.6155 129.558 20.0529 129.407 19.5169C129.255 18.981 128.988 18.4846 128.625 18.0628C128.261 17.641 127.809 17.3039 127.302 17.0752C126.794 16.8465 126.242 16.7318 125.685 16.739L14.3147 16.719ZM82.526 87.7924H57.7218L51.0057 52.7042H88.5364L82.526 87.7924Z" fill="#2684FF"/>
<path d="M124.251 52.6549H88.4671L82.4613 87.7152H57.6772L28.4128 122.451C29.3404 123.253 30.5229 123.699 31.749 123.709H109.419C110.333 123.721 111.221 123.404 111.921 122.816C112.621 122.228 113.086 121.409 113.233 120.507L124.251 52.6549Z" fill="url(#paint0_linear_205_1452)"/>
<defs>
<linearGradient id="paint0_linear_205_1452" x1="26882.4" y1="2319.04" x2="15870.7" y2="16311.6" gradientUnits="userSpaceOnUse">
<stop offset="0.18" stop-color="#0052CC"/>
<stop offset="1" stop-color="#2684FF"/>
</linearGradient>
</defs>
</svg>

<svg xmlns="http://www.w3.org/2000/svg" fill="none" viewBox="0 0 140 140">
  <path fill="#2684FF" d="M14.31 16.72a3.82 3.82 0 0 0-3.81 4.43l16.2 98.33a5.19 5.19 0 0 0 5.07 4.34h77.72a3.81 3.81 0 0 0 3.81-3.2l16.2-99.45a3.81 3.81 0 0 0-3.81-4.43L14.3 16.72Zm68.22 71.07h-24.8L51 52.7h37.53l-6.01 35.1Z"/>
  <path fill="url(#a)" d="M124.25 52.65H88.47l-6 35.07h-24.8l-29.26 34.73c.93.8 2.11 1.25 3.34 1.26h77.67a3.81 3.81 0 0 0 3.81-3.2l11.02-67.86Z"/>
  <defs>
    <linearGradient id="a" x1="26882.4" x2="15870.7" y1="2319.04" y2="16311.6" gradientUnits="userSpaceOnUse">
      <stop offset=".18" stop-color="#0052CC"/>
      <stop offset="1" stop-color="#2684FF"/>
    </linearGradient>
  </defs>
</svg>
